X:129
T:Wap 'em all Wally, or up an war them all Wally
S:R. Bremner, The Delightful Pocket Companion for the German Flute
A:opposite Somerset House in the Strand, London
B:NLS Glen.186
N:vol 2nd part 5th p.14
M:C
L:1/8
Q:1/4=120
K:D
d2(f<d) g2  (g<b)  |d2(f<d) e2 (e<a)   |d2(f<d) gabg|agfe [1 d2 (d<a)   :|\
                                                          [2 d2  db/=c'/||
d'baf   g>a gb/=c'/|d'baf   e>f eb/=c'/|d'baf   gabg|agfe [1 d2  db/=c'/:|\
                                                          [2 d2  d<a    ||
D2(F<D) G2 (G<B)   |D2(F<D) E2 (E<A)   |D2(F<D) GABG|AGFE [1 D2  D<A    :|\
                                                          [2 D2  DB/=c/ ||
dBAF    G>A EB/=c/ |dBAF    E>F GB/c/  |dBAF    GABG|AGFE [1 D2  DB/=c/ :|\
                                                          [2 D2  D<A    ||

